X: 212
T: Bakmıyor Çeşm-i Siyah Feryade
C: Hacı Ârif Bey
O: Turkey
F: http://compmusic.upf.edu/node/140
N: nihavent--sarki--aksak--bakmiyor_cesm-i--haci_arif_bey
N: makam= nihavent
N: form= sarki
N: usul= aksak = 9/8
M: 9/8
L: 1/16
K: C _B _e  
Q: 1/4=192
%%MIDI tuningsystem comma53
G4 G2d2 d8-d2 | d4d3ccd cBB4z2  | e4 e2d2 ^c2d2 e2^f2 ed | 
w:  *  Bak mı yor   |  çeşm_ i  *  si *  *  *  yah   |  fer yâ  | 
d^c ded2 =c2cB BAdc BAG^F  | G4 G2d2 d8-d2 | 
w:  de    |  *  Bak mı yor   | 
d4d3ccd cBB4z2  | e4 e2d2 ^c2d2 e2^f2 ed | \
w:  çeşm_ i  *  si *  *  *  yah   |  fer yâ  | 
d4z2 d=efe def4eg  | 
w:  de   SAZ  | 
f3=e d2e2 f4 f4 _7/8g2 | a3_7/8gg3ff2 g2f2 =e2d2  | \
w:  *  *  Ye tiş_ ey  gam  |  ze  *  ye *  tiş   | 
f4 f2e2 d2e2 f2g_a gf | 
w:  im dâ  | 
fe fgf2 e2de dcB4c2  | d2z2 c2d2 d4 g4 d2 | \
w:  de    |  *  Ye tiş_ ey  gam  | 
d3cc3BBA Bcd4z2  | 
w:  ze  *  ye *  tiş   | 
d3c c3B B3A dcBA G^F | G6 _7/8g2f=e def4eg  | 
w:  im *  dâ  |  de   SAZ  | 
f3=e d2e2 f8 _7/8g2 | a3_7/8gg3ff2 g2f2 =e2d2  | \
w:  *  *  Gel mi yor   |  han *  çer_ *  *  i  eb  | 
z2d=e f2_7/8g2 a2g2 f2e2 (3agf | 
w:  rû  *  *  *  *  *  *  dâ  | 
=e2 f4 abag gfg4f2  | g2z2 f2g2 g4 g4 f2 | \
w:  de   SAZ  |  *  Ye tiş_ ey  gam  | 
=e4f4fe edd4z2  | 
w:  ze  ye tiş   | 
f4 f2e2 d2e2 f2g_a gf | fe fgf2 e2de dcB4c2  | 
w:  im dâ  |  de    | 
d2z2 c2d2 d4 g4 d2 | d3cc3BBA Bcd4z2  | \
w:  *  Ye tiş_ ey  gam  |  ze  *  ye *  tiş   | 
d3c c3B B3A dcBA G^F | 
w:  im *  dâ  | 
G6 dedc BAG4z2  | |


